X: 11
T: the Defiance
%%VWML:Button1818-2292c-p6-0
F:http://www.vwml.org/record/Button1818/2292c/p6
B: "Le Sylphe, Twenty Four Country Dances with Figures for the Year 1818", Button & Whitaker, p.6 #1
F: http://www.vwml.org/browse/browse-collections-dance-tune-books/browse-button1818
Z: 2014 John Chambers <jc:trillian.mit.edu>
N: The Figures by Mr WILSON.
M: 3/8
L: 1/16
K: C
% - - - - - - - - - - - - - - - - - - - - - - - - - - - - -
g2 |\
g2(ed)e2 | c2(ce)g2 | f2(dc)d2 | e2(fa)c'2 |\
g2(ed)e2 | c2(ce)g2 | f2(dB)d2 | c4 :|
|: G2 |\
G2ceg2 | {^g}a2(Af)d2 | (Bd)(dB)(Bd) | (Bd)(dB)g2 |\
G2(ce)g2 | {^g}a2(Af)d2 | (Bd)(dB)B2 | c4 :|
% - - - - - - - - - - Dance description - - - - - - - - - -
W: WALTZ FIGURE        (Each strain repeated)
W:
W:The 3 Ladies & 3 Gent: set to each other & turn
W:a la waltz |: & whole poussette :| .
W:
W: COUNTRY DANCE FIGURE        (Each strain repeated)
W:
W:Hands 3 round with 2d Lady hands 3 round with 2d
W:Gent: down the mid: up again & allemande |: .
W:
%%sep 1 1 450
T: Cupid in Armour
%R: waltz
B: "Le Sylphe, Twenty Four Country Dances with Figures for the Year 1818", Button & Whitaker, p.6 #2
F: http://www.vwml.org/browse/browse-collections-dance-tune-books/browse-button1818
Z: 2014 John Chambers <jc:trillian.mit.edu>
N: The Figures by Mr WILSON.
M: 3/8
L: 1/16
K: C
% - - - - - - - - - - - - - - - - - - - - - - - - - - - - -
G2 |\
G2e2c2 | e2c2e2 | d2B2G2 | (e4c2) |\
G2e2c2 | e2c2e2 | dgdBcA | G4 :|
|: G2 |\
(GA).B.c.d.e | (f4e2) | d4c2 | B4G2 |\
(cd).e.f.g.a | (g2c'2)e2 | (gf)e2d2 | c4 :|
|: Gc |\
e2(Gc)e2 | (Gc)e2z2 | f2z2 (Bd) | f2(Bd)f2 |\
e2Gce2 | Gce2z2 | (ga)(gf)(dB) | c4 :|
|: G2 |\
G4fd | B2dBG2 | c4c'g | e2gec2 |\
G4fd | B2dBG2 | cegfdB | c4 :|
% - - - - - - - - - - Dance description - - - - - - - - - -
W: WALTZ FIGURE        (Each strain repeated)
W:
W:The 1st Lady meets & turns 2d Gent: a la waltz
W:1st Gent: turns 2d Lady a la waltz |:
W:promenade a la waltz |: whole poussette with
W:sauteuse step |: & swing cor.s a la waltz |:
W:
W: COUNTRY DANCE FIGURE        (Each strain repeated)
W:
W:Hands 3 round on Ladies side & 2d Lady passes under
W:to her place hands 3 on Gent: side & 2d Gent: do same |:
W:down the mid: up again allemande |: set contrary corners |:
W:lead thro' bottom & right & left with top Cu: |: .
W:
%%sep 1 1 450
